icons/linear-ele-office-tool-compass.svg

<svg xmlns="http://www.w3.org/2000/svg" width="32px" height="32px" viewBox="0 0 32 32" version="1.1">
    <title>linear-ele-office-tool-compass</title>
    <g id="linear-ele-office-tool-compass" stroke-width="1" fill-rule="evenodd">
        <path d="M16,2 C23.7319865,2 30,8.2680135 30,16 C30,23.7319865 23.7319865,30 16,30 C8.2680135,30 2,23.7319865 2,16 C2,8.2680135 8.2680135,2 16,2 Z M16,4 C9.372583,4 4,9.372583 4,16 C4,22.627417 9.372583,28 16,28 C22.627417,28 28,22.627417 28,16 C28,9.372583 22.627417,4 16,4 Z M21.2560226,9.64638644 C21.5093685,9.49437889 21.8258699,9.49437889 22.0792158,9.64638644 C22.45808,9.87370497 22.5809321,10.3651132 22.3536136,10.7439774 L18.2572479,17.5712535 C18.0883484,17.8527527 17.8527527,18.0883484 17.5712535,18.2572479 L10.7439774,22.3536136 C10.4906315,22.5056211 10.1741301,22.5056211 9.92078418,22.3536136 C9.54191996,22.126295 9.41906791,21.6348868 9.64638644,21.2560226 L13.7427521,14.4287465 C13.9116516,14.1472473 14.1472473,13.9116516 14.4287465,13.7427521 L21.2560226,9.64638644 Z" id="&#24418;&#29366;" fill-rule="nonzero" />
    </g>
</svg>

<svg xmlns="http://www.w3.org/2000/svg" viewBox="0 0 32 32"><path fill="currentColor" d="M16 2c7.732 0 14 6.268 14 14s-6.268 14-14 14S2 23.732 2 16 8.268 2 16 2m0 2C9.373 4 4 9.373 4 16s5.373 12 12 12 12-5.373 12-12S22.627 4 16 4m5.256 5.646a.8.8 0 0 1 1.098 1.098l-4.097 6.827a2 2 0 0 1-.686.686l-6.827 4.097a.8.8 0 0 1-1.098-1.098l4.097-6.827a2 2 0 0 1 .686-.686z"/></svg>
